svgs/sharp-regular/hand-holding-heart.svg

<svg xmlns="http://www.w3.org/2000/svg" viewBox="0 0 576 512"><!--! Font Awesome Pro 6.6.0 by @fontawesome - https://fontawesome.com License - https://fontawesome.com/license (Commercial License) Copyright 2024 Fonticons, Inc. --><path d="M167.2 135.1c-14.9-14.9-23.2-35-23.2-56l0-3.6C144 33.8 177.9-.1 219.6-.1c23 0 44.7 10.4 59.1 28.4L288 39.9l9.3-11.6C311.6 10.4 333.4-.1 356.4-.1C398.1-.1 432 33.8 432 75.6l0 3.6c0 21-8.3 41.1-23.2 56L384 159.9l-96 96-96-96-24.8-24.8zM160.7 304l7.3 0 216 0 24 0 0 24 0 46.5 79.9-50.8 20.4-13 12.8 20.5 40 64 12.2 19.5-19 13-116.8 80-6.1 4.2-7.4 0L24 512 0 512l0-48 24 0 392.6 0 91.7-62.8-15-24-80.4 51L407 432l-7 0-32 0-48 0-24 0-40 0-24 0 0-48 24 0 40 0 24 0 40 0 0-32-184.7 0-90 60-6 4L72 416l-48 0L0 416l0-48 24 0 40.7 0 90-60 6-4z"/></svg>

<svg xmlns="http://www.w3.org/2000/svg" viewBox="0 0 576 512"><!--! Font Awesome Pro 6.4.2 by @fontawesome - https://fontawesome.com License - https://fontawesome.com/license (Commercial License) Copyright 2023 Fonticons, Inc. --><path d="M167.2 135.1c-14.9-14.9-23.2-35-23.2-56V75.6C144 33.8 177.9-.1 219.6-.1c23 0 44.7 10.4 59.1 28.4L288 39.9l9.3-11.6C311.6 10.4 333.4-.1 356.4-.1C398.1-.1 432 33.8 432 75.6v3.6c0 21-8.3 41.1-23.2 56L384 159.9l-96 96-96-96-24.8-24.8zM160.7 304H168 384h24v24 46.5l79.9-50.8 20.4-13 12.8 20.5 40 64 12.2 19.5-19 13-116.8 80-6.1 4.2H424 24 0V464H24 416.6l91.7-62.8-15-24-80.4 51L407 432h-7H368 320 296 256 232V384h24 40 24 40V352H175.3l-90 60-6 4H72 24 0V368H24 64.7l90-60 6-4z"/></svg>
